src/assets/outline/Grid1.svg

<svg width="24" height="24" viewBox="0 0 24 24"  xmlns="http://www.w3.org/2000/svg">
<path d="M15 22.75H9C3.57 22.75 1.25 20.43 1.25 15V9C1.25 3.57 3.57 1.25 9 1.25H15C20.43 1.25 22.75 3.57 22.75 9V15C22.75 20.43 20.43 22.75 15 22.75ZM9 2.75C4.39 2.75 2.75 4.39 2.75 9V15C2.75 19.61 4.39 21.25 9 21.25H15C19.61 21.25 21.25 19.61 21.25 15V9C21.25 4.39 19.61 2.75 15 2.75H9Z" />
<path d="M21.9998 9.25H2.02979C1.61979 9.25 1.27979 8.91 1.27979 8.5C1.27979 8.09 1.61979 7.75 2.02979 7.75H21.9998C22.4098 7.75 22.7498 8.09 22.7498 8.5C22.7498 8.91 22.4098 9.25 21.9998 9.25Z" />
<path d="M21.9998 16.25H2.02979C1.61979 16.25 1.27979 15.91 1.27979 15.5C1.27979 15.09 1.61979 14.75 2.02979 14.75H21.9998C22.4098 14.75 22.7498 15.09 22.7498 15.5C22.7498 15.91 22.4098 16.25 21.9998 16.25Z" />
<path d="M8.50977 22.7398C8.09977 22.7398 7.75977 22.3998 7.75977 21.9898V2.00977C7.75977 1.59977 8.09977 1.25977 8.50977 1.25977C8.91977 1.25977 9.25977 1.59977 9.25977 2.00977V21.9798C9.25977 22.3998 8.92977 22.7398 8.50977 22.7398Z" />
<path d="M15.5098 22.7398C15.0998 22.7398 14.7598 22.3998 14.7598 21.9898V2.00977C14.7598 1.59977 15.0998 1.25977 15.5098 1.25977C15.9198 1.25977 16.2598 1.59977 16.2598 2.00977V21.9798C16.2598 22.3998 15.9298 22.7398 15.5098 22.7398Z" />
</svg>

<?xml version="1.0" encoding="UTF-8"?>
<svg width="24" height="24" viewBox="0 0 24 24" xmlns="http://www.w3.org/2000/svg">
 <path d="m15 22.75h-6c-5.43 0-7.75-2.32-7.75-7.75v-6c0-5.43 2.32-7.75 7.75-7.75h6c5.43 0 7.75 2.32 7.75 7.75v6c0 5.43-2.32 7.75-7.75 7.75zm-6-20c-4.61 0-6.25 1.64-6.25 6.25v6c0 4.61 1.64 6.25 6.25 6.25h6c4.61 0 6.25-1.64 6.25-6.25v-6c0-4.61-1.64-6.25-6.25-6.25h-6z"/>
 <path d="m22 9.25h-19.97c-0.41 0-0.75-0.34-0.75-0.75s0.34-0.75 0.75-0.75h19.97c0.41 0 0.75 0.34 0.75 0.75s-0.34 0.75-0.75 0.75z"/>
 <path d="m22 16.25h-19.97c-0.41 0-0.75-0.34-0.75-0.75s0.34-0.75 0.75-0.75h19.97c0.41 0 0.75 0.34 0.75 0.75s-0.34 0.75-0.75 0.75z"/>
 <path d="m8.5098 22.74c-0.41 0-0.75-0.34-0.75-0.75v-19.98c0-0.41 0.34-0.75 0.75-0.75s0.75 0.34 0.75 0.75v19.97c0 0.42-0.33 0.76-0.75 0.76z"/>
 <path d="m15.51 22.74c-0.41 0-0.75-0.34-0.75-0.75v-19.98c0-0.41 0.34-0.75 0.75-0.75s0.75 0.34 0.75 0.75v19.97c0 0.42-0.33 0.76-0.75 0.76z"/>
</svg>
